X: 13
T: Over The Moor To Maggie
Z: shanachie
S: https://thesession.org/tunes/115#setting53879
R: reel
M: 4/4
L: 1/8
K: Gmaj
|:"G"G3A BA B/c/d|"G"efge dBAG|"Am"EAAG ABAG|"Am"EAAG AcBA|
"G"G3A BA B/c/d|"G"efge dBAG|"C"EGG2 "G/B"BGAG|"D"EGFA "G"G4:|
|:"G"bgg2 "D/A"agef|"G/B"fgge d2B/c/d|"Am"eaa2 "G/B"b2ag|"C"eaag "D"a2ga|
"G"bgg2 "D/A"agef|"G/B"gage d2B/c/d|"Am"egg2 "C"bgag|"D"egfa "G"g4:|
|:"C"e4 "G/B"d4|"C"c3A "G/B"B2AG|"Am"EAA2 B2AG|"Am"EAAG ABcd|
"C"e3c "G/B"d3B|"C"cAA2 "D"B2AG| "G"EGG2 "C"BGAG|"D"EGFA "G"G4:|

%-------------------- TUNE SEPARATOR --------------------%

